dist/assets/images/applyJobs/third_step.svg

<svg width="54" height="54" viewBox="0 0 54 54" fill="none" xmlns="http://www.w3.org/2000/svg">
<path d="M54 27C54 41.9117 41.9117 54 27 54C12.0883 54 0 41.9117 0 27C0 12.0883 12.0883 0 27 0C41.9117 0 54 12.0883 54 27ZM3.49998 27C3.49998 39.9787 14.0213 50.5 27 50.5C39.9787 50.5 50.5 39.9787 50.5 27C50.5 14.0213 39.9787 3.49998 27 3.49998C14.0213 3.49998 3.49998 14.0213 3.49998 27Z" fill="#DDDDDD"/>
<path d="M27 1.74999C27 0.783498 27.7845 -0.00591048 28.749 0.0566589C35.197 0.474975 41.3041 3.19569 45.9374 7.7549C50.9878 12.7246 53.8823 19.4803 53.9965 26.5649C54.1107 33.6495 51.4354 40.495 46.5478 45.6248C41.6601 50.7547 34.9519 53.7576 27.8701 53.986C20.7883 54.2143 13.9005 51.6497 8.69259 46.8454C3.48466 42.041 0.373974 35.3821 0.0315485 28.3048C-0.310876 21.2276 2.14241 14.2994 6.86219 9.01477C11.1922 4.16657 17.1113 1.0581 23.519 0.225283C24.4775 0.100715 25.3112 0.837948 25.3735 1.80243C25.4357 2.76692 24.7028 3.59256 23.7456 3.72637C18.2549 4.49394 13.1906 7.18317 9.47263 11.3462C5.36467 15.9458 3.2294 21.9759 3.52744 28.1357C3.82548 34.2955 6.53293 40.0913 11.0658 44.2728C15.5986 48.4544 21.5935 50.6865 27.7573 50.4878C33.9211 50.2891 39.7598 47.6754 44.0138 43.2105C48.2679 38.7457 50.5963 32.7875 50.497 26.6213C50.3976 20.4551 47.8783 14.5751 43.4826 10.2496C39.5041 6.33477 34.2772 3.97735 28.7484 3.56507C27.7846 3.49319 27 2.71649 27 1.74999Z" fill="#2E1AAD"/>
<path d="M18.6 33.26C19.5067 33.26 20.34 33.05 21.1 32.63C21.86 32.2033 22.47 31.63 22.93 30.91C23.39 30.1833 23.62 29.3667 23.62 28.46C23.62 27.7867 23.4967 27.15 23.25 26.55C23.01 25.9433 22.6533 25.4167 22.18 24.97C21.7067 24.5167 21.1267 24.19 20.44 23.99L23.36 21.16V18.6H14.36V21.16H20.14L16.26 24.38L17.48 26.52C17.84 26.3067 18.2133 26.2 18.6 26.2C19.26 26.2 19.8 26.4233 20.22 26.87C20.6467 27.31 20.86 27.84 20.86 28.46C20.86 28.8733 20.7567 29.25 20.55 29.59C20.35 29.93 20.0767 30.2 19.73 30.4C19.39 30.6 19.0133 30.7 18.6 30.7C18.12 30.7 17.6733 30.5567 17.26 30.27C16.8533 29.9767 16.58 29.5667 16.44 29.04L13.8 29.74C14.0067 30.4533 14.35 31.0733 14.83 31.6C15.3167 32.1267 15.8867 32.5367 16.54 32.83C17.1933 33.1167 17.88 33.26 18.6 33.26Z" fill="#231F20"/>
<path d="M30.032 22.48H31.24L28.168 34H26.96L30.032 22.48ZM36.4191 34.232C37.1285 34.232 37.7578 34.0747 38.3071 33.76C38.8618 33.44 39.2965 33 39.6111 32.44C39.9311 31.8747 40.0911 31.224 40.0911 30.488C40.0911 29.768 39.9445 29.1333 39.6511 28.584C39.3578 28.0347 38.9471 27.608 38.4191 27.304C37.8911 26.9947 37.2778 26.8427 36.5791 26.848L39.9551 23.624V22.48H33.2991V23.608H38.4591L34.4991 27.264L35.0911 28.2C35.2885 28.104 35.5018 28.0267 35.7311 27.968C35.9605 27.9093 36.1791 27.88 36.3871 27.88C37.1338 27.88 37.7338 28.12 38.1871 28.6C38.6458 29.0747 38.8751 29.704 38.8751 30.488C38.8751 31.2613 38.6538 31.8853 38.2111 32.36C37.7738 32.8347 37.1711 33.08 36.4031 33.096C35.8538 33.1067 35.3578 32.9653 34.9151 32.672C34.4725 32.3787 34.1551 31.9467 33.9631 31.376L32.8431 31.712C33.0885 32.4907 33.5311 33.1067 34.1711 33.56C34.8165 34.008 35.5658 34.232 36.4191 34.232Z" fill="#231F20"/>
</svg>

<svg width="54" height="54" fill="none" xmlns="http://www.w3.org/2000/svg"><path d="M54 27c0 14.912-12.088 27-27 27S0 41.912 0 27 12.088 0 27 0s27 12.088 27 27zM3.5 27c0 12.979 10.521 23.5 23.5 23.5S50.5 39.979 50.5 27 39.979 3.5 27 3.5 3.5 14.021 3.5 27z" fill="#DDD"/><path d="M27 1.75c0-.967.785-1.756 1.749-1.693a27 27 0 11-5.23.168c.959-.124 1.792.613 1.855 1.577.062.965-.671 1.79-1.628 1.924a23.5 23.5 0 105.002-.16C27.785 3.492 27 2.715 27 1.75z" fill="#2E1AAD"/><path d="M18.6 33.26c.907 0 1.74-.21 2.5-.63.76-.427 1.37-1 1.83-1.72.46-.727.69-1.543.69-2.45 0-.673-.123-1.31-.37-1.91a4.344 4.344 0 00-1.07-1.58 4.144 4.144 0 00-1.74-.98l2.92-2.83V18.6h-9v2.56h5.78l-3.88 3.22 1.22 2.14a2.17 2.17 0 011.12-.32c.66 0 1.2.223 1.62.67.427.44.64.97.64 1.59 0 .413-.103.79-.31 1.13-.2.34-.473.61-.82.81-.34.2-.717.3-1.13.3-.48 0-.927-.143-1.34-.43-.407-.293-.68-.703-.82-1.23l-2.64.7c.207.713.55 1.333 1.03 1.86a5.211 5.211 0 001.71 1.23c.653.287 1.34.43 2.06.43zm11.432-10.78h1.208L28.168 34H26.96l3.072-11.52zm6.387 11.752c.71 0 1.339-.157 1.888-.472.555-.32.99-.76 1.304-1.32.32-.565.48-1.216.48-1.952 0-.72-.147-1.355-.44-1.904a3.165 3.165 0 00-1.232-1.28c-.528-.31-1.141-.461-1.84-.456l3.376-3.224V22.48H33.3v1.128h5.16l-3.96 3.656.592.936a3.37 3.37 0 01.64-.232c.23-.059.448-.088.656-.088.747 0 1.347.24 1.8.72.459.475.688 1.104.688 1.888 0 .773-.221 1.397-.664 1.872-.437.475-1.04.72-1.808.736a2.54 2.54 0 01-1.488-.424c-.443-.293-.76-.725-.952-1.296l-1.12.336c.245.779.688 1.395 1.328 1.848.645.448 1.395.672 2.248.672z" fill="#231F20"/></svg>
